images/icons/klarna_k_icon.svg

<svg width="16" height="16" viewBox="0 0 16 16" fill="none" xmlns="http://www.w3.org/2000/svg">
<path d="M3.06133 1.33334V14.6667H0V1.33334H3.06133ZM10.7013 1.33334C10.7013 4.12934 9.646 6.73667 7.758 8.712L7.57267 8.90067L11.8013 14.6667H8.02267L3.42733 8.4L4.61333 7.512C6.51867 6.08534 7.63667 3.92667 7.70467 1.56267L7.708 1.33334H10.7013ZM14.3333 11.3333C14.7754 11.3333 15.1993 11.5089 15.5118 11.8215C15.8244 12.1341 16 12.558 16 13C16 13.442 15.8244 13.866 15.5118 14.1785C15.1993 14.4911 14.7754 14.6667 14.3333 14.6667C13.8913 14.6667 13.4674 14.4911 13.1548 14.1785C12.8423 13.866 12.6667 13.442 12.6667 13C12.6667 12.558 12.8423 12.1341 13.1548 11.8215C13.4674 11.5089 13.8913 11.3333 14.3333 11.3333Z" fill="black"/>
</svg>

<svg xmlns="http://www.w3.org/2000/svg" width="16" height="16" fill="none"><path fill="#000" d="M3.061 1.333v13.333H0V1.333h3.061zm7.64 0a10.61 10.61 0 0 1-2.943 7.379l-.185.189 4.229 5.766H8.023L3.427 8.4l1.186-.888a7.65 7.65 0 0 0 3.091-5.949l.003-.229H10.7zm3.632 10a1.667 1.667 0 1 1-.003 3.332 1.667 1.667 0 0 1 .004-3.331z"/></svg>
